lib/brands/icons/dell.svg

<svg xmlns="http://www.w3.org/2000/svg" fill="none" aria-hidden="true" viewBox="0 0 48 48"><g id="dell-Icon"><g id="dell"><path fill="#0083CA" fill-rule="evenodd" d="M22.5174 18.8404C22.3674 18.742 22.2175 18.6437 22.0683 18.5446C21.4389 18.9489 20.8115 19.355 20.184 19.7612C19.0036 20.5253 17.8232 21.2894 16.6303 22.041C16.1999 20.7367 15.2723 19.6894 13.9638 19.2817C13.0407 18.9941 11.8958 19.0317 10.712 19.0705C9.99809 19.0939 9.27006 19.1178 8.56793 19.0711V27.8543C9.28673 27.8209 10.0009 27.8412 10.6929 27.8609C11.4382 27.8821 12.1579 27.9025 12.83 27.8543C14.9084 27.7048 16.1645 26.4397 16.6934 24.7581C17.5839 25.3407 18.4594 25.9385 19.3349 26.5363C20.2543 27.164 21.1736 27.7917 22.1103 28.4019C22.7122 28.0166 23.318 27.6221 23.9246 27.227C25.0877 26.4695 26.2538 25.71 27.4012 25.0107V27.8543H33.3432V25.0529C32.9916 25.0476 32.632 25.0504 32.2724 25.0532C31.6868 25.0578 31.1012 25.0624 30.5506 25.032V19.0711H27.4012V22.0621C27.0115 22.3114 26.6228 22.5616 26.2341 22.8119C25.1948 23.4811 24.1555 24.1503 23.0971 24.8002C23.0142 24.746 22.9277 24.6953 22.8413 24.6446C22.6893 24.5554 22.5372 24.4663 22.4043 24.3578C22.9998 23.9718 23.589 23.5795 24.1782 23.1872C24.9813 22.6524 25.7845 22.1176 26.6035 21.5987C26.017 21.1549 25.3913 20.7505 24.7558 20.3559C23.4483 21.1953 22.1358 22.0294 20.8232 22.8635C20.7134 22.9334 20.6035 23.0032 20.4936 23.073C20.3865 22.9908 20.272 22.916 20.1575 22.8412C20.0432 22.7665 19.9288 22.6918 19.8218 22.6097C20.4083 22.2348 20.9913 21.8564 21.5743 21.4781C22.3937 20.9464 23.213 20.4147 24.0419 19.8926C23.5548 19.5207 23.0361 19.1805 22.5174 18.8404ZM11.5702 25.0529V21.8936C11.5684 21.8637 11.5669 21.8339 11.5912 21.8304C12.5004 21.772 13.1557 21.8661 13.5438 22.3148C14.1253 22.9872 13.9926 24.2491 13.3338 24.7582C12.9345 25.0668 12.4312 25.0615 11.7859 25.0548C11.7157 25.0541 11.6438 25.0533 11.5702 25.0529Z" clip-rule="evenodd"/><path fill="#0083CA" d="M37.3111 19.0711H34.1618C34.1374 19.0746 34.139 19.1042 34.1406 19.134L34.1406 27.8544H40.0826V25.0529H37.3111V19.0711Z"/><path fill="#0083CA" fill-rule="evenodd" d="M24.6505 3H23.3488C17.0589 3.34739 12.4976 5.77664 9.15573 9.12943C5.82914 12.4667 3.34149 16.9714 3.02491 23.326C3.02844 23.3505 3.02038 23.3635 3.00391 23.3682V24.6319C3.33452 31.0109 5.80868 35.4692 9.15564 38.8495C12.5026 42.23 17.0179 44.641 23.3488 44.9999H24.6295C31.0864 44.6812 35.364 42.1765 38.8437 38.8707C42.1562 35.3904 44.674 31.1129 44.9954 24.6319V23.3682C44.6648 16.9892 42.1907 12.5308 38.8437 9.1505C35.4967 5.77019 30.9822 3.35819 24.6505 3ZM15.8534 7.2758C16.8674 6.77275 17.9861 6.34717 19.2336 6.01204C20.4905 5.67437 21.8679 5.49201 23.3281 5.42226C26.2982 5.2804 29.0713 5.94165 31.2016 6.83351C33.3971 7.75269 35.2602 9.02444 36.8074 10.5195C39.9344 13.5411 42.3038 17.5034 42.5812 23.347C42.7278 26.4318 42.0499 28.9783 41.1535 31.1826C39.381 35.5402 36.183 38.6984 32.1252 40.7453C30.0547 41.7896 27.5556 42.44 24.6716 42.5777C21.665 42.7214 18.995 42.0804 16.8402 41.1666C12.4828 39.3186 9.33416 36.278 7.26602 32.1514C6.21878 30.0615 5.55583 27.6097 5.4185 24.695C5.20069 20.0719 6.70474 16.5461 8.44182 13.8054C10.2215 10.9975 12.7668 8.80693 15.8534 7.2758Z" clip-rule="evenodd"/></g></g></svg>

<svg xmlns="http://www.w3.org/2000/svg" fill="none" aria-hidden="true" viewBox="0 0 48 48"><path fill="#0083CA" fill-rule="evenodd" d="m22.518 18.84-.45-.295c-.629.404-1.256.81-1.884 1.216a344.06 344.06 0 0 1-3.553 2.28c-.43-1.304-1.358-2.352-2.667-2.76-.923-.287-2.068-.25-3.252-.21-.714.023-1.442.047-2.144 0v8.783a28.308 28.308 0 0 1 2.125.007c.745.021 1.465.041 2.137-.007 2.079-.15 3.335-1.414 3.864-3.096.89.583 1.766 1.18 2.641 1.778.92.628 1.839 1.256 2.775 1.866.602-.385 1.208-.78 1.815-1.175 1.163-.758 2.33-1.517 3.476-2.216v2.843h5.942v-2.801c-.351-.005-.71-.003-1.07 0-.586.005-1.172.01-1.722-.021v-5.96H27.4v2.99l-1.167.75c-1.039.67-2.078 1.338-3.137 1.988a6.21 6.21 0 0 0-.255-.155c-.152-.09-.304-.179-.437-.287.595-.386 1.184-.779 1.773-1.17.804-.536 1.607-1.07 2.426-1.59a24.277 24.277 0 0 0-1.848-1.242c-1.307.84-2.62 1.673-3.933 2.507l-.33.21a5.43 5.43 0 0 0-.335-.232 5.42 5.42 0 0 1-.336-.231c.587-.375 1.17-.754 1.753-1.132.819-.532 1.638-1.063 2.467-1.585a25.966 25.966 0 0 0-1.524-1.053ZM11.57 25.053v-3.16c-.001-.03-.003-.06.021-.063.91-.058 1.565.036 1.953.485.582.672.449 1.934-.21 2.443-.4.309-.903.303-1.548.297l-.216-.002Z" clip-rule="evenodd"/><path fill="#0083CA" d="M37.311 19.071h-3.149c-.024.004-.023.033-.021.063v8.72h5.942v-2.801H37.31V19.07Z"/><path fill="#0083CA" fill-rule="evenodd" d="M24.65 3h-1.3c-6.29.347-10.852 2.777-14.194 6.13-3.327 3.337-5.814 7.841-6.13 14.196.003.024-.005.037-.022.042v1.264c.33 6.379 2.805 10.837 6.152 14.217 3.347 3.381 7.862 5.792 14.193 6.15h1.28c6.458-.318 10.735-2.823 14.215-6.128 3.312-3.48 5.83-7.758 6.152-14.24v-1.263c-.33-6.379-2.805-10.837-6.152-14.217C35.497 5.77 30.983 3.357 24.65 3Zm-8.796 4.276a18.185 18.185 0 0 1 3.38-1.264c1.257-.338 2.634-.52 4.094-.59 2.97-.142 5.744.52 7.874 1.412a18.06 18.06 0 0 1 5.606 3.686c3.127 3.021 5.496 6.983 5.773 12.827.147 3.085-.53 5.631-1.427 7.836-1.773 4.357-4.97 7.515-9.029 9.562-2.07 1.045-4.57 1.695-7.453 1.833a17.869 17.869 0 0 1-7.832-1.411c-4.357-1.848-7.506-4.889-9.574-9.016-1.047-2.09-1.71-4.541-1.847-7.456-.218-4.623 1.286-8.149 3.023-10.89 1.78-2.807 4.325-4.998 7.412-6.53Z" clip-rule="evenodd"/></svg>
